public/state.svg

<svg>
 <g>
  <path fill="#00ff00" d="m15.375,7l-5.375,-4.46c-0.305,-0.253 -0.539,-0.54 -1,-0.54c-0.625,0 -1,0.516 -1,1l0,3l-7,0c-0.55,0 -1,0.45 -1,1l0,2c0,0.55 0.45,1 1,1l7,0l0,3c0,0.484 0.375,1 1,1c0.461,0 0.695,-0.287 1,-0.54l5.375,-4.46c0.383,-0.312 0.625,-0.555 0.625,-1s-0.242,-0.687 -0.625,-1z"/>
 </g>
</svg>

<svg
   xmlns="http://www.w3.org/2000/svg"
   viewBox="0 0 24 24"
   width="24"
   height="24">
  <g
     transform="matrix(1.2987288,0,0,1.1949153,1.7288136,1.6440678)">
    <path
       d="M 15.375,7 10,2.54 C 9.695,2.287 9.461,2 9,2 8.375,2 8,2.516 8,3 V 6 H 1 C 0.45,6 0,6.45 0,7 v 2 c 0,0.55 0.45,1 1,1 h 7 v 3 c 0,0.484 0.375,1 1,1 0.461,0 0.695,-0.287 1,-0.54 L 15.375,9 C 15.758,8.688 16,8.445 16,8 16,7.555 15.758,7.313 15.375,7 Z"
       style="fill:#00ff00" />
  </g>
</svg>
